assets/icons/qvision/sd_storage.svg

<svg xmlns="http://www.w3.org/2000/svg" height="24" viewBox="0 0 24 24" width="24"><path d="M0 0h24v24H0z" fill="none"/><path d="M18 2h-8L4.02 8 4 20c0 1.1.9 2 2 2h12c1.1 0 2-.9 2-2V4c0-1.1-.9-2-2-2zm-6 6h-2V4h2v4zm3 0h-2V4h2v4zm3 0h-2V4h2v4z"/></svg>

<svg width="24" height="24" viewBox="0 0 24 24" fill="none" xmlns="http://www.w3.org/2000/svg">
<g clip-path="url(#clip0_147_2448)">
<path d="M18 2H10L4.02 8L4 20C4 21.1 4.9 22 6 22H18C19.1 22 20 21.1 20 20V4C20 2.9 19.1 2 18 2ZM12 8H10V4H12V8ZM15 8H13V4H15V8ZM18 8H16V4H18V8Z" fill="#323232"/>
</g>
<defs>
<clipPath id="clip0_147_2448">
<rect width="24" height="24" fill="white"/>
</clipPath>
</defs>
</svg>
